status/48/audio-volume-muted-symbolic.svg

<svg xmlns="http://www.w3.org/2000/svg" height="48" width="48" version="1.2"><path style="isolation:auto;mix-blend-mode:normal" d="M19 13.25L12.312 20H9v8h3.313L19 34.75v-21.5zM25 20v2l2 2-2 2v2h2l2-2 2 2h2v-2l-2-2 2-2v-2h-2l-2 2-2-2h-2z" color="#bebebe" overflow="visible" opacity=".35" fill="#bebebe"/></svg>

<?xml version="1.0" encoding="UTF-8" standalone="no"?>
<svg
   xmlns:dc="http://purl.org/dc/elements/1.1/"
   xmlns:cc="http://creativecommons.org/ns#"
   xmlns:rdf="http://www.w3.org/1999/02/22-rdf-syntax-ns#"
   xmlns:svg="http://www.w3.org/2000/svg"
   xmlns="http://www.w3.org/2000/svg"
   id="svg2"
   height="48"
   width="48"
   version="1.2">
  <defs
     id="defs4" />
  <metadata
     id="metadata7">
    <rdf:RDF>
      <cc:Work
         rdf:about="">
        <dc:format>image/svg+xml</dc:format>
        <dc:type
           rdf:resource="http://purl.org/dc/dcmitype/StillImage" />
        <dc:title />
      </cc:Work>
    </rdf:RDF>
  </metadata>
  <path
     style="color:#bebebe;clip-rule:nonzero;display:inline;overflow:visible;visibility:visible;opacity:0.35;isolation:auto;mix-blend-mode:normal;color-interpolation:sRGB;color-interpolation-filters:linearRGB;solid-color:#000000;solid-opacity:1;fill:#bebebe;fill-opacity:1;fill-rule:nonzero;stroke:none;stroke-width:1.82310748;stroke-linecap:butt;stroke-linejoin:miter;stroke-miterlimit:4;stroke-dasharray:none;stroke-dashoffset:0;stroke-opacity:1;marker:none;color-rendering:auto;image-rendering:auto;shape-rendering:auto;text-rendering:auto;enable-background:accumulate"
     d="M 19 13.25 L 12.3125 20 L 9 20 L 9 28 L 12.3125 28 L 19 34.75 L 19 13.25 z M 25 20 L 25 22 L 27 24 L 25 26 L 25 28 L 27 28 L 29 26 L 31 28 L 33 28 L 33 26 L 31 24 L 33 22 L 33 20 L 31 20 L 29 22 L 27 20 L 25 20 z "
     id="path4328" />
</svg>
